X:1
T:Fulneck, CMD
T:Fulneck, CMD
T:Ernest O. Butterfield (1853-1923)
C:Ernest O. Butterfield (1853-1923)
%%score ( 1 2 ) ( 3 4 )
L:1/8
Q:1/4=110
M:4/4
K:E
V:1 treble 
V:2 treble 
V:3 bass 
V:4 bass 
V:1
 (EF) | [EG]2 [EG]2 [EG]2 ([EG][FA]) | [GB]2 [Ac]2 [GB]2 ([GB][EG]) | [DF]3 [DF] [CE]2 [DF]2 | %4
 ([EG]2 [GB]4) (EF) | [EG]2 [EG]2 [EG]2 ([EG][FA]) | [GB]2 [Ac]2 [GB]2 (Be) | %7
 [Fd]3 [Fd] [Ac]2 [Ad]2 | [Ge]6 [GB]2 | c4- ([Ac][ce]) ([Bd][Ac]) | B4 [EG]2 ([GB][EG]) | %11
 [DF]3 [DF] [CE]2 [DF]2 | ([EG]2 [GB]4) [GB]2 | c4- ([Ac][ce]) ([Bd][Ac]) | %14
 B4 !fermata![Ge]2 (EF) | [EG]3 [EB] [EG]2 [DF]2 | E6 |] %17
V:2
 E2 | x8 | x8 | x8 | x6 E2 | x8 | x6 G2 | x8 | x8 | A2 A2 x4 | G2 G2 x4 | x8 | x8 | A2 A2 x4 | %14
 (G2 G2 E2) x2 | x8 | E6 |] %17
V:3
 (G,A,) | [E,B,]2 [E,B,]2 [E,B,]2 [E,B,]2 | [E,E]2 [E,E]2 [E,E]2 (EB,) | %3
 [B,,B,]3 [B,,A,] [C,G,]2 [B,,B,]2 | (B,2 E4) (G,A,) | [E,B,]2 [E,B,]2 [E,B,]2 [E,B,]2 | %6
 [E,E]2 [E,E]2 [E,E]2 (EB,) | [B,,B,]3 [B,,B,] [B,,B,]2 [B,,B,]2 | [E,B,]6 [E,E]2 | %9
 [A,E]2 [A,E]2 [A,E]2 [A,E]2 | [E,E]2 [E,E]2 [E,B,]2 (EB,) | [B,,B,]3 [B,,A,] [C,G,]2 [B,,B,]2 | %12
 (B,2 E4) [E,E]2 | [A,E]2 [A,E]2 [A,E]2 [A,E]2 | ([E,E]2 [E,E]2 !fermata![E,B,]2) (G,A,) | %15
 [E,B,]3 [G,B,] B,2 [B,,A,]2 | [E,G,]6 |] %17
V:4
 E,2 | x8 | x6 E,2 | x8 | E,6 E,2 | x8 | x6 E,2 | x8 | x8 | x8 | x6 E,2 | x8 | E,6 x2 | x8 | %14
 x6 E,2 | x4 B,2 x2 | x6 |] %17

